!!!!SEGMENT: pl-wtm--r-741-m--001-pc1_moniuszko-stanislaw--walc-b-dur-pc1.krn
!!!cenid: 18xx:1676b
!!!COM: Moniuszko, Stanisław
!!!COM-rismID: pe30008351
!!!CDT: 1819/05/05-1872/06/04
!!!CNT: Polish
!!!OTL: Walc B-dur [post correcturam]
!!!PDT: 1840
!!!AGN: Secular; Waltz
!!!SMS-siglum: PL-Wtm
!!!SMS-shelfmark: R 741/M
!!!SMS-shelfwork: 001 W
!!!SMS-variant:
!!!SMS-altvar:
!!!NIFC-rismSourceID: 1001095991
!!!NIFC-rismChildID: 1001095991
!!!NIFC-islandoraID:
!!!URL-pdf-islandora:
!!!URL-scan:
!!!ONB-nifc: N|o 1 Walc
!!!AIN: 1 piano
!!!key:
**kern	**kern	**dynam
*part1	*part1	*part1
*staff2	*staff1	*
*>[A,A,B,B1,B,B2]	*>[A,A,B,B1,B,B2]	*
*Ipiano	*Ipiano	*
*I"[Piano]	*I"[Piano]	*
*I'[pf]	*I'[pf]	*
*clefF4	*clefG2	*
*k[b-e-]	*k[b-e-]	*
*B-:	*B-:	*
*M3/4	*M3/4	*
=1	=1	=1
*>A	*>A	*
!	!LO:TX:i:a:t=Allegretto.	!LO:DY:b:t=p.:rj
!	!LO:TX:t=P:problem=8,4\left of right&colon; global	!
2.r	4ff#X 4f#y\	p
.	4gg 4g\	.
.	4aa 4a\	.
=2	=2	=2
*^	*	*
*2\right	*2\right	*2\right	*
4r	(<2.C#X\	(>2cccny 2ccn\	.
4en 4B- 4G/	.	.	.
4e 4B- 4G/	.	4bb- 4b-\)	.
=3	=3	=3	=3
4r	2.D\	4een 4eny\	.
4d 4B- 4F/	.	4ff 4f\	.
4d 4B-/	.	4ff#X 4f#y\	.
=4	=4	=4	=4
4r	2.E-\	(>2aa 2a\	.
4c 4B- 4G/	.	.	.
4c 4B- 4G/	.	4gg 4g\)	.
=5	=5	=5	=5
4r	2.En\	4cc#X 4c#y/	.
4B- 4G/	.	4dd 4d/	.
4B- 4G/)	.	4een 4eny/	.
=6	=6	=6	=6
4r	2.F\	2gg 2g\	.
4d 4B-/	.	.	.
4d 4B-/	.	4ff 4f\	.
*v	*v	*	*
=7	=7	=7
4FF/	4gg 4gT>\	.
4c 4A\	4.ff 4.f^>\	.
4c 4A\	.	.
.	8ee- 8e-\	.
=8	=8	=8
4BB-/	2cc#X 2c#y/	.
4B- 4F\	.	.
4B- 4F\	4dd 4d/	.
!!LO:LB:g=original
=9	=9	=9
*^	*	*
4r	(<2.C#X\	4ff#X 4f#y\	.
4en 4B- 4G/	.	4gg 4g\	.
4e 4B- 4G/	.	4aa 4a\	.
=10	=10	=10	=10
4r	2.D\	(>2cccn 2cc\	.
4d 4B- 4F/	.	.	.
4d 4B- 4F/	.	4bb- 4b-\)	.
=11	=11	=11	=11
4r	2.E-\	4ee- 4e-/	.
4c 4B- 4G/	.	4ff/ 4f/	.
4c 4B- 4G/	.	4gg/ 4g/	.
=12	=12	=12	=12
4r	2.En\)	2aa 2a\	.
4c#X 4B-/	.	.	.
4c# 4B-/	.	4gg 4g\	.
*v	*v	*	*
=13	=13	=13
4d 4B- 4F\	4ff 4fT>\	.
4c#X 4B- 4G\	4een 4eny\	.
[>4d [<4B- 4F\	4ff 4f\	.
=14	=14	=14
4d] 4B-\]	(>4.ddd 4.dd\	.
4F\	.	.
.	8bb-\L)	.
4FF/	8ff\	.
.	8dd\J	.
=15	=15	=15
*^	*	*
2e- 2c/	(>4B-\	(>4.gg 4.g\	.
.	4A\)	.	.
.	.	8ff\L)	.
4ryy	4FF/	8ee-\	.
.	.	8dd\J	.
*v	*v	*	*
=16	=16	=16
4d 4B-\	4b-/	.
4F\	4r	.
4BB-/	4r	.
!!LO:LB:g=original
=17:|!|:	=17:|!|:	=17:|!|:
*>B	*>B	*
2.r	4ee- 4e-/	.
.	4dd 4d/	.
.	4cc#X 4c#y/	.
=18	=18	=18
4FF#X/	(>2ccn 2c/	.
!	!	!LO:HP:b
4A 4D\	.	>
4c 4F#X 4D\	4aa 4a/)	]
=19	=19	=19
4DD/	4ccc 4cc\	.
4d 4F#X 4D\	(>4.bb- 4.b-\	.
4c 4F# 4D\	.	.
.	8aa 8a\)	.
=20	=20	=20
4GG/	(>2bb- 2b-\	.
4B- 4G 4D\	.	.
4B- 4G 4D\	4gg 4g\)	.
=21	=21	=21
4d 4B- 4G\	4bb- 4b-\	.
4e- 4B- 4G\	4aa 4a\	.
4en 4B- 4G\	4gg 4g\	.
=22	=22	=22
4e-X 4c 4B-\	(>4.ff 4.f\	.
4FF/	.	.
.	8gg 8g\	.
4e- 4A\	4ff 4f\)	.
=23	=23	=23
*^	*	*
4g 4A 4F^>/	4ryy	4eee- 4ee-\	.
4f 4A^>/	2F\	4ddd 4dd\	.
4en 4B-^>/	.	4ccc#X 4cc#y\	.
*v	*v	*	*
=24	=24	=24
4BB-/	(>2ddd 2dd\	.
.	.	>
4f 4B-\	.	.
4d 4B-\	4ff\)	]
!!LO:LB:g=original
=25	=25	=25
!	!	!LO:DY:b:rj
4BB-/	4ddd 4dd\	p
4d 4B- 4F#X\	4ccc 4cc\	.
4d 4B- 4F#\	4bb- 4b-\	.
=26	=26	=26
*^	*	*
4r	2.E-\	(>4.ccc 4.cc\	.
4e- 4B- 4G/	.	.	.
.	.	8bb- 8b-)	.
4e- 4B- 4G/	.	4aa 4a\	.
=27	=27	=27	=27
4r	2.C\	4bb- 4b-\	.
4en 4B- 4G/	.	4aa 4a\	.
4e 4B- 4G/	.	4gg 4g\	.
=28	=28	=28	=28
4r	2.F\	(>4.aa 4.a\	.
4d 4B-/	.	.	.
.	.	8gg 8g\)	.
4d 4B-/	.	4ff 4f\	.
*v	*v	*	*
=29	=29	=29
4FF/	(>4.bb- 4.b-\	.
4e- 4c\	.	.
.	8aaL 8a\)	.
4e- 4c 4A\	8cc\	.
.	8ee-\J	.
=30	=30	=30
*^	*	*
4r	2.F\	(>4.gg 4.g\	.
4e- 4A/	.	.	.
.	.	8ffL 8f\)	.
4e- 4A/	.	8cc\	.
.	.	8dd\J	.
*v	*v	*	*
=31	=31	=31
*>B1	*>B1	*
!	!LO:TX:a:t=I. Volta	!
4d 4B-\	2b-\	.
4F\	.	.
4BB-\	4r	.
=32:|!	=32:|!	=32:|!
*>B2	*>B2	*
!	!LO:TX:a:t=2da V.	!
4d 4B-\	2b-\	.
4BB-/	.	.
4r	4r	.
==	==	==
*-	*-	*-
!!!system-decoration: {(s1,s2)}
!!!RDF**kern: > = above
!!!RDF**kern: < = below
!!!EED: Antoni Szymański
!!!EEV: 2021-04-22
!!!ENC: Anastazja Marusiak
!!!END: 2021-04-06
!!!YEC: Copyright 2022 Narodowy Instytut Fryderyka Chopina (https://polishscores.org)
!!!YEM: License CC-BY-4.0 (https://creativecommons.org/licenses/by/4.0)
